X: 36226
T: Scully Casey's
R: slide
M: 12/8
K: Adorian
cAc BAG|EGA GAB|1 cBc dcd|eaa ged|2 cBc dBG|BAG A3||
|:cBc dcd|eaa ged|eaa aga|bag a2g|
eaa c'aa|aba ged|cBc dBG|BAG A3:|

